PROC TEST1 P1
	FORWARD P1
	CALL TEST2 5 7
	RIGHT 45
ENDPROC

POS 1 1 1

PROC TEST2 PAR1 PAR2
	REPEAT PAR2
		FORWARD PAR1
		LEFT 90
	ENDREPEAT
ENDPROC

POS 0 0 0
ANGLE 5 10
CALL TEST2 8 3
POS 1 0 0
CALL TEST1 10.4
POS 1.1 1.2 0.3